X:398
T: GUTE NACHT JETZT MUSS ICH SCHEIDEN
N: E1591
O: Europa, Mitteleuropa, Deutschland, Franken
R: Staende - Lied, Strassen - Raeuber, Schinderhannes
M: 4/4
L: 1/8
K: F
 | A3GGFF2 | c3BBAA2
A3AG2c2 | edc=Bc4
A3GGFF2 | c3BBAA2
A3AG2c2 | edc=Bc4
A3_Bc2f2 | d3ccBB2
G3AB2d2 | dcBAA2G2
A3GGFF2 | c3BBAA2
d3efcdB | A2G2F4

